archdroid-icon-theme/Archdroid-BlueGrey/mimetypes/scalable/text-html.svg

<svg fill="#607D8B" height="48" viewBox="0 0 48 48" width="48" xmlns="http://www.w3.org/2000/svg"><path d="m12 4c-2.21 0-3.980469 1.79-3.980469 4l-.019531 32c0 2.21 1.770469 4 3.980469 4h24.019531c2.21 0 4-1.79 4-4v-24l-12-12zm14 3 11 11h-11zm-10 17h16v4h-16zm0 8h16v4h-16z" fill="#e34f26"/></svg>

<svg fill="#607D8B" height="48" version="1.1" viewBox="0 0 48 48" width="48" xmlns="http://www.w3.org/2000/svg"><path d="M12 4C9.79 4 8.019531 5.79 8.019531 8L8 40C8 42.21 9.770469 44 11.980469 44L36 44C38.21 44 40 42.21 40 40L40 16 28 4 12 4zM26 7L37 18 26 18 26 7zM16 24L32 24 32 28 16 28 16 24zM16 32L32 32 32 36 16 36 16 32z" fill="#e34f26"/></svg>
